libs/icons/src/svg/sales-outline.svg

<svg width="16" height="16" viewBox="0 0 16 16" fill="none" xmlns="http://www.w3.org/2000/svg">
<g clip-path="url(#clip0_3_1646)">
<path fill-rule="evenodd" clip-rule="evenodd" d="M0.666667 0C0.298477 0 0 0.298477 0 0.666667V6.66667C0 6.84348 0.0702379 7.01305 0.195262 7.13807L8.19526 15.1381C8.45561 15.3984 8.87772 15.3984 9.13807 15.1381L15.1381 9.13807C15.3984 8.87772 15.3984 8.45561 15.1381 8.19526L7.13807 0.195262C7.01305 0.0702379 6.84348 0 6.66667 0H0.666667ZM1.33333 6.39052V1.33333H6.39052L13.7239 8.66667L8.66667 13.7239L1.33333 6.39052ZM4 4.66667C4 4.29848 4.29847 4.00001 4.66666 4.00001C5.03485 4.00001 5.33333 4.29848 5.33333 4.66667C5.33333 5.03486 5.03485 5.33334 4.66666 5.33334C4.29847 5.33334 4 5.03486 4 4.66667ZM4.66666 2.66667C3.56209 2.66667 2.66666 3.5621 2.66666 4.66667C2.66666 5.77124 3.56209 6.66667 4.66666 6.66667C5.77123 6.66667 6.66666 5.77124 6.66666 4.66667C6.66666 3.5621 5.77123 2.66667 4.66666 2.66667Z" fill="#202327"/>
</g>
<defs>
<clipPath id="clip0_3_1646">
<rect width="16" height="16" fill="white"/>
</clipPath>
</defs>
</svg>

<svg xmlns="http://www.w3.org/2000/svg" viewBox="0 0 16 16" class="sageicon"><path fill-rule="evenodd" d="M.667 0A.667.667 0 0 0 0 .667v6c0 .176.07.346.195.471l8 8c.26.26.683.26.943 0l6-6a.667.667 0 0 0 0-.943l-8-8A.667.667 0 0 0 6.667 0h-6Zm.666 6.39V1.334h5.058l7.333 7.334-5.057 5.057L1.333 6.39ZM4 4.668a.667.667 0 1 1 1.333 0 .667.667 0 0 1-1.333 0Zm.667-2a2 2 0 1 0 0 4 2 2 0 0 0 0-4Z"/></svg>
